src/2-landmarks/subway-interior--door-drop.svg

<svg width="1300" height="1000" viewBox="0 0 1300 1000" fill="none" xmlns="http://www.w3.org/2000/svg"><g clip-path="url(#a)"><path fill-rule="evenodd" clip-rule="evenodd" d="M957 0h-7v80c0 11.046 8.954 20 20 20h54.12l-19.47 34.545c-1.88 3.333.53 7.455 4.36 7.455h46.98c3.83 0 6.24-4.122 4.36-7.455L1040.88 100h95.24l-19.47 34.545c-1.88 3.333.53 7.455 4.36 7.455h46.98c3.83 0 6.24-4.122 4.36-7.455L1152.88 100h95.24l-19.47 34.545c-1.88 3.333.53 7.455 4.36 7.455h46.98c3.83 0 6.24-4.122 4.36-7.455L1264.88 100H1300v-7H972c-8.284 0-15-6.716-15-15V0Zm75.99 100h-.98l-20.71 35h42.4l-20.71-35Zm90.31 35 20.71-35h.98l20.71 35h-42.4Zm133.69-35h-.98l-20.71 35h42.4l-20.71-35ZM400 900h-80V742h10c11.046 0 20-8.954 20-20v-20c0-11.046-8.954-20-20-20h-10v-10c0-11.046-8.954-20-20-20H0v7h298c8.284 0 15 6.716 15 15v8H70c-6.85 0-12.895 3.444-16.5 8.694C49.895 685.444 43.85 682 37 682H0v7h35c8.284 0 15 6.716 15 15v16c0 8.284-6.716 15-15 15H0v7h37c6.85 0 12.895-3.444 16.5-8.694C57.105 738.556 63.15 742 70 742h243v158H0v100h1300V900H987V742h243c6.85 0 12.9-3.444 16.5-8.694 3.6 5.25 9.65 8.694 16.5 8.694h37v-7h-35c-8.28 0-15-6.716-15-15v-16c0-8.284 6.72-15 15-15h35v-7h-37c-6.85 0-12.9 3.444-16.5 8.694-3.6-5.25-9.65-8.694-16.5-8.694H987v-8c0-8.284 6.716-15 15-15h298v-7h-300c-11.046 0-20 8.954-20 20v10h-10c-11.046 0-20 8.954-20 20v20c0 11.046 8.954 20 20 20h10v158h-80V220c0-11.046-8.954-20-20-20H420c-11.046 0-20 8.954-20 20v680Zm7 0v-50h91v50h-91Zm565-211c-8.284 0-15 6.716-15 15v16c0 8.284 6.716 15 15 15h256c8.28 0 15-6.716 15-15v-16c0-8.284-6.72-15-15-15H972ZM57 720c0 8.284 6.716 15 15 15h256c8.284 0 15-6.716 15-15v-16c0-8.284-6.716-15-15-15H72c-8.284 0-15 6.716-15 15v16Zm743 123h93V561h-53c-11.046 0-20-8.954-20-20V250c0-11.046 8.954-20 20-20h53v-8c0-8.284-6.716-15-15-15h-78v636Zm-7-636H505v693h288v-17h7v17h93v-50h-93v12h-7V207ZM498 843h-91V561h51c11.046 0 20-8.954 20-20V250c0-11.046-8.954-20-20-20h-51v-8c0-8.284 6.716-15 15-15h76v636Zm395-289V237h-51c-8.284 0-15 6.716-15 15v287c0 8.284 6.716 15 15 15h51Zm-437 0h-49V237h49c8.284 0 15 6.716 15 15v287c0 8.284-6.716 15-15 15Z" fill="#000"/><path d="M0 553v7h330c11.046 0 20-8.954 20-20V250c0-11.046-8.954-20-20-20H0v7h328c8.284 0 15 6.716 15 15v286c0 8.284-6.716 15-15 15H0Zm1300 7v-7H972c-8.284 0-15-6.716-15-15V252c0-8.284 6.716-15 15-15h328v-7H970c-11.046 0-20 8.954-20 20v290c0 11.046 8.954 20 20 20h330Z" fill="#000"/><path fill-rule="evenodd" clip-rule="evenodd" d="M350 0h-7v78c0 8.284-6.716 15-15 15H0v7h35.118L15.65 134.545c-1.878 3.333.53 7.455 4.356 7.455h46.986c3.826 0 6.234-4.122 4.356-7.455L51.882 100h95.236l-19.467 34.545c-1.878 3.333.53 7.455 4.356 7.455h46.986c3.826 0 6.234-4.122 4.356-7.455L163.882 100h95.236l-19.467 34.545c-1.878 3.333.53 7.455 4.356 7.455h46.986c3.826 0 6.234-4.122 4.356-7.455L275.882 100H330c11.046 0 20-8.954 20-20V0ZM22.301 135l20.706-35h.986L64.7 135H22.3Zm133.692-35h-.986l-20.706 35h42.398l-20.706-35Zm90.308 35 20.706-35h.986l20.706 35h-42.398Z" fill="#000"/><path d="M575 472.01c.285-1.638 13.472-48.964 31-84.998 18.5-33.499 31-47.499 72.5-46.999 6 .072 11.994 4 14.5 9.5 18 39.499 67 182.996 67 182.996l14.111 14.317c10.929 11.09 10.645 28.985-.63 39.723a.836.836 0 0 1-1.036.093l-42.392-27.94a5 5 0 0 1-1.651-1.804l-9.902-18.39 3.5 22 60 156.496 10 139.997 17.55 2.257c9.978 1.283 17.45 9.777 17.45 19.836v1.907L761 900h-34l-1.5-7.499a6.636 6.636 0 0 1-6.603-5.97L704.5 744.004 666 664.506l-19 79.498-73 131.997 8.372 4.751a20 20 0 0 1 10.128 17.394V900H530l-32-17.999 10.5-15a6.831 6.831 0 0 1-2.084-8.861L568.5 744.004l31-167.996-33.712 48.088a.925.925 0 0 1-.789.392c-12.692-.479-21.098-13.363-16.423-25.173L558 575.508s9-57.499 17-103.498Zm109.822-137.188c-3.632 1.731-10.599 2.844-12.434 3.009 0 0-8.275.655-13.252-.762-5.609-1.596-8.809-3.353-12.863-7.482-2.744-2.794-5.138-7.804-6.247-10.348-.455-1.043-.8-2.126-1.087-3.227l-6.183-23.706s-.797-3.436-.985-5.678c-.447-5.332.002-8.525 1.74-13.601 1.785-5.214 3.494-8.07 7.238-12.161 3.991-4.361 6.966-6.374 12.42-8.741 4.236-1.838 6.859-2.515 11.462-2.955 4.959-.266 6.827-.117 11.673.931 4.86 1.158 9.926 3.522 13.878 6.44 3.952 2.918 6.855 6.528 9.239 10.719 2.385 4.192 3.657 8.328 4.076 13.093.157 1.797.146 3.961.016 5.762l-2.768 24.167a24.326 24.326 0 0 1-.694 3.691c-.793 2.874-2.478 8.425-4.349 11.251-2.593 3.917-6.536 7.528-10.88 9.598Z" fill="#000"/><path d="M681.788 328.363c-2.921 1.446-8.532 2.361-10.01 2.494 0 0-6.666.525-10.681-.684-4.525-1.363-7.11-2.854-10.39-6.345-2.157-2.295-4.054-6.351-4.988-8.549-.427-1.005-.748-2.048-1.016-3.107l-5.009-19.794s-.653-2.896-.812-4.786c-.377-4.493-.025-7.182 1.358-11.452 1.422-4.386 2.79-6.787 5.794-10.221 3.201-3.661 5.592-5.347 9.98-7.324 3.407-1.535 5.519-2.096 9.227-2.452 3.995-.208 5.501-.077 9.41.822 3.92.991 8.009 2.998 11.204 5.47 3.194 2.471 5.545 5.521 7.48 9.06 1.935 3.538 2.973 7.027 3.326 11.042.132 1.514.131 3.338.032 4.855l-2.129 20.124a23.638 23.638 0 0 1-.63 3.554c-.651 2.473-1.955 6.939-3.409 9.242-2.078 3.292-5.243 6.321-8.737 8.051Zm126.149 536.911L784.5 863.47 774 716.889l-60-157.087C699.433 412.238 687.621 366.8 681.517 352.84c-2.08-4.758-7.201-6.842-12.393-6.84-12.272.005-36.29 4.386-53.125 35.217C597.321 415.423 582 471.753 582 471.753l-17 104.558-10.365 26.618c-2.229 5.726 1.995 11.904 8.14 11.904a.437.437 0 0 0 .356-.183l27.369-38.339 20.5-59.533 35.645-98.079a1.484 1.484 0 0 1 2.821.91l-27.164 96.099c-.2.71-.299 1.413-.269 2.149.312 7.768 3.556 56.355 36.467 109.982 1.5 2.444 54.5 115.564 54.5 115.564l12.876 135.033a8.415 8.415 0 0 0 1.358 3.85c2.33 3.529 6.299 6.47 7.096 10.622L735.5 899l81.672-23.703-.004-.237a10 10 0 0 0-9.231-9.786Z" fill="#fff"/><path d="M688 351s23 83.5 27 166c.17 3.507 20.95 36.622 20.95 36.622l34.098 23.565a.71.71 0 0 0 .868-.046c5.873-5.073 6.593-13.918 1.618-19.873L753.5 534.485 731 468l-43-117ZM578.127 887.001 563.5 879.5 639 744s24.802-92.5 22-97c-49.5-79.5-44-123.5-44-123.5l-21.5 113.75L577 744l-59.817 112.039c-2.739 5.13-.449 13.515-3.946 18.161L510 878.5l36 20.5 38 1-.481-5.049a10 10 0 0 0-5.392-7.95Z" fill="#fff"/></g><defs><clipPath id="a"><path fill="#fff" d="M0 0h1300v1000H0z"/></clipPath></defs></svg>

<svg width="1300" height="1000" viewBox="0 0 1300 1000" fill="none" xmlns="http://www.w3.org/2000/svg">
<g clip-path="url(#clip0_871_501)">
<path fill-rule="evenodd" clip-rule="evenodd" d="M957 0H950V80C950 91.0457 958.954 100 970 100H1024.12L1004.65 134.545C1002.77 137.878 1005.18 142 1009.01 142H1055.99C1059.82 142 1062.23 137.878 1060.35 134.545L1040.88 100H1136.12L1116.65 134.545C1114.77 137.878 1117.18 142 1121.01 142H1167.99C1171.82 142 1174.23 137.878 1172.35 134.545L1152.88 100H1248.12L1228.65 134.545C1226.77 137.878 1229.18 142 1233.01 142H1279.99C1283.82 142 1286.23 137.878 1284.35 134.545L1264.88 100H1300V93H972C963.716 93 957 86.2843 957 78V0ZM1032.99 100H1032.01L1011.3 135H1053.7L1032.99 100ZM1123.3 135L1144.01 100H1144.99L1165.7 135H1123.3ZM1256.99 100H1256.01L1235.3 135H1277.7L1256.99 100Z" fill="black"/>
<path fill-rule="evenodd" clip-rule="evenodd" d="M400 900H320V742H330C341.046 742 350 733.046 350 722V702C350 690.954 341.046 682 330 682H320V672C320 660.954 311.046 652 300 652H0V659H298C306.284 659 313 665.716 313 674V682H70C63.1501 682 57.1046 685.444 53.5 690.694C49.8954 685.444 43.8499 682 37 682H0V689H35C43.2843 689 50 695.716 50 704V720C50 728.284 43.2843 735 35 735H0V742H37C43.8499 742 49.8954 738.556 53.5 733.306C57.1046 738.556 63.1501 742 70 742H313V900H0V1000H1300V900H987V742H1230C1236.85 742 1242.9 738.556 1246.5 733.306C1250.1 738.556 1256.15 742 1263 742H1300V735H1265C1256.72 735 1250 728.284 1250 720V704C1250 695.716 1256.72 689 1265 689H1300V682H1263C1256.15 682 1250.1 685.444 1246.5 690.694C1242.9 685.444 1236.85 682 1230 682H987V674C987 665.716 993.716 659 1002 659H1300V652H1000C988.954 652 980 660.954 980 672V682H970C958.954 682 950 690.954 950 702V722C950 733.046 958.954 742 970 742H980V900H900V220C900 208.954 891.046 200 880 200H420C408.954 200 400 208.954 400 220V900ZM407 900V850H498V900H407ZM972 689C963.716 689 957 695.716 957 704V720C957 728.284 963.716 735 972 735H1228C1236.28 735 1243 728.284 1243 720V704C1243 695.716 1236.28 689 1228 689H972ZM57 720C57 728.284 63.7157 735 72 735H328C336.284 735 343 728.284 343 720V704C343 695.716 336.284 689 328 689H72C63.7157 689 57 695.716 57 704V720ZM800 843H893V561H840C828.954 561 820 552.046 820 541V250C820 238.954 828.954 230 840 230H893V222C893 213.716 886.284 207 878 207H800V843ZM793 207H505V900H793V883H800V900H893V850H800V862H793V207ZM498 843H407V561H458C469.046 561 478 552.046 478 541V250C478 238.954 469.046 230 458 230H407V222C407 213.716 413.716 207 422 207H498V843ZM893 554V237H842C833.716 237 827 243.716 827 252V539C827 547.284 833.716 554 842 554H893ZM456 554H407V237H456C464.284 237 471 243.716 471 252V539C471 547.284 464.284 554 456 554Z" fill="black"/>
<path d="M0 553V560H330C341.046 560 350 551.046 350 540V250C350 238.954 341.046 230 330 230H0V237H328C336.284 237 343 243.716 343 252V538C343 546.284 336.284 553 328 553H0Z" fill="black"/>
<path d="M1300 560V553H972C963.716 553 957 546.284 957 538V252C957 243.716 963.716 237 972 237H1300V230H970C958.954 230 950 238.954 950 250V540C950 551.046 958.954 560 970 560H1300Z" fill="black"/>
<path fill-rule="evenodd" clip-rule="evenodd" d="M350 0H343V78C343 86.2843 336.284 93 328 93H0V100H35.1176L15.651 134.545C13.7728 137.878 16.1812 142 20.007 142H66.9927C70.8185 142 73.2269 137.878 71.3487 134.545L51.8821 100H147.118L127.651 134.545C125.773 137.878 128.181 142 132.007 142H178.993C182.819 142 185.227 137.878 183.349 134.545L163.882 100H259.118L239.651 134.545C237.773 137.878 240.181 142 244.007 142H290.993C294.819 142 297.227 137.878 295.349 134.545L275.882 100H330C341.046 100 350 91.0457 350 80V0ZM22.3012 135L43.0069 100H43.9931L64.6988 135H22.3012ZM155.993 100H155.007L134.301 135H176.699L155.993 100ZM246.301 135L267.007 100H267.993L288.699 135H246.301Z" fill="black"/>
<path d="M575 472.01C575.285 470.372 588.472 423.046 606 387.012C624.5 353.513 637 339.513 678.5 340.013C684.5 340.085 690.494 344.013 693 349.513C711 389.012 760 532.509 760 532.509L774.111 546.826C785.04 557.916 784.756 575.811 773.481 586.549C773.2 586.817 772.77 586.856 772.445 586.642L730.053 558.702C729.362 558.247 728.795 557.627 728.402 556.898L718.5 538.508L722 560.508L782 717.004L792 857.001L809.55 859.258C819.528 860.541 827 869.035 827 879.094V881.001L761 900H727L725.5 892.501C722.093 892.501 719.239 889.921 718.897 886.531L704.5 744.004L666 664.506L647 744.004L574 876.001L582.372 880.752C588.632 884.305 592.5 890.948 592.5 898.146V900H530L498 882.001L508.5 867.001C505.652 865.008 504.755 861.193 506.416 858.14L568.5 744.004L599.5 576.008L565.788 624.096C565.608 624.352 565.311 624.499 564.999 624.488C552.307 624.009 543.901 611.125 548.576 599.315L558 575.508C558 575.508 567 518.009 575 472.01Z" fill="black"/>
<path d="M684.822 334.822C681.19 336.553 674.223 337.666 672.388 337.831C672.388 337.831 664.113 338.486 659.136 337.069C653.527 335.473 650.327 333.716 646.273 329.587C643.529 326.793 641.135 321.783 640.026 319.239C639.571 318.196 639.226 317.113 638.939 316.012L632.756 292.306C632.756 292.306 631.959 288.87 631.771 286.628C631.324 281.296 631.773 278.103 633.511 273.027C635.296 267.813 637.005 264.957 640.749 260.866C644.74 256.505 647.715 254.492 653.169 252.125C657.405 250.287 660.028 249.61 664.631 249.17C669.59 248.904 671.458 249.053 676.304 250.101C681.164 251.259 686.23 253.623 690.182 256.541C694.134 259.459 697.037 263.069 699.421 267.26C701.806 271.452 703.078 275.588 703.497 280.353C703.654 282.15 703.643 284.314 703.513 286.115L700.745 310.282C700.602 311.528 700.384 312.764 700.051 313.973C699.258 316.847 697.573 322.398 695.702 325.224C693.109 329.141 689.166 332.752 684.822 334.822Z" fill="black"/>
<path d="M681.788 328.363C678.867 329.809 673.256 330.724 671.778 330.857C671.778 330.857 665.112 331.382 661.097 330.173C656.572 328.81 653.987 327.319 650.707 323.828C648.55 321.533 646.653 317.477 645.719 315.279C645.292 314.274 644.971 313.231 644.703 312.172L639.694 292.378C639.694 292.378 639.041 289.482 638.882 287.592C638.505 283.099 638.857 280.41 640.24 276.14C641.662 271.754 643.03 269.353 646.034 265.919C649.235 262.258 651.626 260.572 656.014 258.595C659.421 257.06 661.533 256.499 665.241 256.143C669.236 255.935 670.742 256.066 674.651 256.965C678.571 257.956 682.66 259.963 685.855 262.435C689.049 264.906 691.4 267.956 693.335 271.495C695.27 275.033 696.308 278.522 696.661 282.537C696.793 284.051 696.792 285.875 696.693 287.392L694.564 307.516C694.437 308.715 694.242 309.904 693.934 311.07C693.283 313.543 691.979 318.009 690.525 320.312C688.447 323.604 685.282 326.633 681.788 328.363Z" fill="white"/>
<path d="M807.937 865.274L784.5 863.47L774 716.889L714 559.802C699.433 412.238 687.621 366.8 681.517 352.84C679.437 348.082 674.316 345.998 669.124 346C656.852 346.005 632.834 350.386 615.999 381.217C597.321 415.423 582 471.753 582 471.753L565 576.311L554.635 602.929C552.406 608.655 556.63 614.833 562.775 614.833C562.916 614.833 563.049 614.765 563.131 614.65L590.5 576.311L611 516.778L646.645 418.699C646.858 418.113 647.415 417.722 648.039 417.722C649.022 417.722 649.733 418.662 649.466 419.609L622.302 515.708C622.102 516.418 622.003 517.121 622.033 517.857C622.345 525.625 625.589 574.212 658.5 627.839C660 630.283 713 743.403 713 743.403L725.876 878.436C726.01 879.849 726.491 881.161 727.234 882.286C729.564 885.815 733.533 888.756 734.33 892.908L735.5 899L817.172 875.297L817.168 875.06C817.073 869.906 813.076 865.67 807.937 865.274Z" fill="white"/>
<path d="M688 351C688 351 711 434.5 715 517C715.17 520.507 735.95 553.622 735.95 553.622L770.048 577.187C770.314 577.371 770.671 577.352 770.916 577.141C776.789 572.068 777.509 563.223 772.534 557.268L753.5 534.485L731 468L688 351Z" fill="white"/>
<path d="M578.127 887.001L563.5 879.5L639 744C639 744 663.802 651.5 661 647C611.5 567.5 617 523.5 617 523.5L595.5 637.25L577 744L517.183 856.039C514.444 861.169 516.734 869.554 513.237 874.2L510 878.5L546 899L584 900L583.519 894.951C583.196 891.555 581.163 888.558 578.127 887.001Z" fill="white"/>
</g>
<defs>
<clipPath id="clip0_871_501">
<rect width="1300" height="1000" fill="white"/>
</clipPath>
</defs>
</svg>
